X:1
T:Je layme bien
T:Je layme bien
T:Jean Guyot (Castileti)
C:Jean Guyot (Castileti)
%%score [ 1 2 [ 3 4 ] ]
L:1/8
Q:1/4=80
M:2/2
K:F
V:1 treble nm="Superius" snm="S"
V:2 treble nm="Altus" snm="A"
V:3 treble-8 nm="Tenor 1" snm="T 1"
V:4 treble-8 nm="Tenor 2" snm="T 2"
V:1
 d4 c2 B2 | A2 F2 B2 c2 | e2 d3 c AB | c4 z2 c2 | B2 A2 G2 F2 | B2 c2 e2 d2- | dc/B/ c2 F2 c2- | %7
w: Je lay- me|bien et lay- *|* * * me- *|ray, je|lay- me bien et|lay- * * *||
 cB AG A3 B | c4 z4 | d4 c2 B2- | B4 A2 E2 | F3 E D2 B2 |"^#" A2 G4 F2 | G4 z2 d2 | cABA AG A2 | %15
w: * * * * * me-|ray,|je lay- me|_ bien et|lay- * * *|* * me-|ray, à|ce pro- pos suis et se- ray,|
 z2 d2 cABA | A2 G3 F/E/ F2 | G4 z2 d2 | f2 ec e2 d2- | d2 z2 e2 g2 | fd f3 e e2- | ed d4 c2 | %22
w: à ce pro- pos suis|et se- * * *|ray, et|de- meu- * * ray|_ tout- te|ma _ vi- * *||
 d2 d2 f2 ec | e2 d4 z2 | e2 g2 fd f2- | fe e3 d d2- |"^#" d2 c2 d4- | d4 z2 A2 | B d2 c d4 | %29
w: e, tout- te ma _|vi- e,|tout- te ma _ vi-||* * e,|_ tout-|te ma vi- e,|
 z2 A2 A2 c2- | cc B2 A2 d2- | d2 c2 d4- | d4 z2 A2 | B d2 c d4 | z2 A2 A2 c2- | cc B2 A2 d2- | %36
w: et quoy qu'on|_ men di'- par en-|* vi- e,|_ tout-|te ma vi- e,|et quoy qu'on|_ nen dis' par en-|
 d2 c2 d4 | f4 e3 d | c2 G2 B2 c2 |"^b" e6 d2- | d2 cB c4 | d8- | d8- | d8- | d8 |] %45
w: * vi- e,|je lay- *|* me bien et|lay- *|* * * me-|ray.|_|||
V:2
 z8 | z8 | z8 | G4 F3 E | D2 A,2 C2 D2 | _E3 F GA B2 | A4 z2 A2 | G2 F2 D2 F2 | G3 A B2 B2- | %9
w: |||Je lay- me|bien et lay- *|* * * * me-|ray je|lay- me bien et|lay- * * *|
 B2 A4 G2 | F2 D2 F2 G2 | B2 A2 G3 F | E4 D4- | D4 z4 | A2 GE FD F2 | E2 D2 A2 GE | FEDC D4 | %17
w: |||me- ray,|_|à ce pro- pos suis et|se- ray, à ce pro-|pos suis et se- ray,|
 z4 G2 B2 | AF A2 G4 | z2 A2 c2 BG | B2 A2 c2 c2 | B4 z2 G2- | G2 B2 AF A2 | G4 z2 A2 | %24
w: et de-|meu- * * ray|tout- te ma _|_ _ _ vi-|e, tout|_ te ma _ vi-|e, tout-|
 c2 BG B2 A2 | c4 B2 G2 | A3 G F2 G2 | D3 E FG AF | G4 z2 D2 | D2 F3 F E2 | D2 G2 F2 A2- | %31
w: te ma _ vi- *||* * * e,|tout- te ma _ vi- *|e, et|quoy qu'on men di-|* se par en-|
 AG A2 F2 G2 | B3 A/G/ FG AF | G4 z2 D2 | D2 F3 F E2 | D2 G2 F2 A2- | A2 A2 A2 B2 | A3 B c2 C2 | %38
w: * * vi- * *||e, et|quoy qu'on en di-|* se par en-|* vi- e, je|lay- * * me|
 E4 D2 A2 | G2 c3 B B2- | BA GF G4 | z2 B4 A2- | A2 G2 F2 D2 | F2 G2 B4 | A8 |] %45
w: bien et lay-||* * me- * ray,|je lay-|* me bien et|lay- * me-|ray.|
V:3
 z4 z2 g2 | f3 e d2 A2 | c2 d2 f4 | e3 f/g/ a4 | z8 | g6 f2- | f2 e2 d2 A2 | c2 d2 f4 | e4 d2 g2- | %9
w: Je|lay- me bien et|lay- * *|* me- * ray,||Je lay-|* me bien et|lay- * *||
 g2 f4 d2 | d2 B2 c3 B/c/ | d2 A2 B2 d2 | c3 B A4 | G4 g2 fd | eddc d4 | g2 fd eddc | %16
w: |||* * me-|ray, à ce pro-|pos suis et se- ray,|à ce pro- pos suis et se-|
 d3 c/B/ AG A2 | G2 z d e2 g2 | f2 z2 e2 g2 | fd f2 e4 | z2 f2 a2 ge |"^b" gfed e4 | d4 z4 | %23
w: |ray et de- meu-|ray tout- te|ma _ vi- e,|et de meu- *||ray|
 e2 g2 fd f2 | e4 z2 f2 | a2 ge gfed | e4 d4 | z2 d2 d2 f2- | ff e2 d2 g2 | f3 g af g2 | %30
w: tout- te ma _ vi-|e, et|de- meu- * ray tout- te ma|vi- e|et quoy qu'on|_ men di- e, et|quoy qu'on men _ di-|
 f2 d2 d2 f2- | ff e2 d4 | z2 d2 d2 f2- | ff e2 d2 g2 | f3 g af g2 | f2 d2 d2 f2- | ff e2 d2 g2- | %37
w: * se par en-|* vi- * e,|et quoy qu'on|_ men di- se par|en- * * * vi-|* se par en-|* vi- * * *|
 g2 f2 g4 | z4 f4 | _e3 d c2 G2 | B2 c2 c4 | d2 f2 g2 f2- | fe dc d2 b2 | a2 b2 g4 |"^#" f8 |] %45
w: * * e,|Je|lay- * * me|bien et lay-||* * me _ bien et|lay- * me-|ray.|
V:4
"^b" z8 | z8 | z4 d4 | c3 B A2 F2 |"^b" B2 c2 e2 d2- | d2 c4 d2 | A4 z4 | z8 | c4 B3 A | %9
w: ||Je|lay- me bien et|lay- * * *|* * me-|ray,||je lay- me|
 G2 D2 F2 G2 | B3 A F2 c2 | B2 F2 G4 | C4 D4 | z2 d2 cA B2 | AFGA D2 d2 | cA B2 AFGA | F2 G2 D4 | %17
w: bien et lay- *|||me- ray,|à- ce _ pro-|pos suis et se- ray, à|ce _ pro- pos suis et se|_ _ _|
 G8 | z2 A2 c2 BG | B2 A4 z2 | B2 d2 cA c2 | G2 B2 c4 | G4 z2 A2 | c2 BG B2 A2- | A2 z2 B2 d2 | %25
w: ray|et de- meu- *|* ray|tout- ta ma _ vi-||e, tout-|te ma _ vi- e,|_ et de-|
 cA c2 G2 B2 | A4 D2 G2 | G2 B3 B A2 | G2 c2 B2 GA | Bc d4 c2 | d2 G2 d4 | A4 z2 G2 | G2 B3 B A2 | %33
w: meu- * ray tout- te|ma vi- e,|tout- te ma vi-|e, et quoy qu'on _|_ _ men dis'-|* se par|_ et|quoy qu'on men di-|
 G2 c2 B2 GA | Bc d4 c2 | d2 G2 d4 | A4 z4 | d4 c3 B | A2 c2 B2 F2 | c4 z4 | z4 c4 | B3 A G2 D2 | %42
w: se par en- vi- *|||e,|je lay- *|* * * me|bien|je|lay- * * me|
 F2 G2 B3 c | d2 G3 A Bc | d8 |] %45
w: bien et lay- *|* * * me _|ray.|

